SVG-Logos/Observability/Grafana/Icons/grafana-faro-icon.svg

<svg xmlns="http://www.w3.org/2000/svg" width="39" height="50" viewBox="0 0 39 50" fill="none">
<path d="M38.0796 6.09685L0 3.99013V2.10672L38.0796 0V6.09685Z" fill="url(#paint0_linear_29753_16075)"/>
<path d="M38.0796 14.8761L0 12.7694V10.886L38.0796 8.7793V14.8761Z" fill="url(#paint1_linear_29753_16075)"/>
<path d="M28.5274 23.65L0 21.5492V19.6687L28.5274 17.5679V23.65Z" fill="url(#paint2_linear_29753_16075)"/>
<path d="M28.5274 32.4323L0 30.3314V28.4509L28.5274 26.3501V32.4323Z" fill="url(#paint3_linear_29753_16075)"/>
<path d="M19.0398 41.2206L0 39.1139V37.2276L19.0398 35.1238V41.2206Z" fill="url(#paint4_linear_29753_16075)"/>
<path d="M19.0398 50.0002L0 47.8935V46.01L19.0398 43.9033V50.0002Z" fill="url(#paint5_linear_29753_16075)"/>
<defs>
<linearGradient id="paint0_linear_29753_16075" x1="-16.9625" y1="12.4405" x2="33.4519" y2="0.763941" gradientUnits="userSpaceOnUse">
<stop stop-color="#FFF000"/>
<stop offset="1" stop-color="#EF5A28"/>
</linearGradient>
<linearGradient id="paint1_linear_29753_16075" x1="-15.032" y1="20.7732" x2="35.3823" y2="9.09663" gradientUnits="userSpaceOnUse">
<stop stop-color="#FFF000"/>
<stop offset="1" stop-color="#EF5A28"/>
</linearGradient>
<linearGradient id="paint2_linear_29753_16075" x1="-13.6804" y1="26.412" x2="32.1003" y2="18.6286" gradientUnits="userSpaceOnUse">
<stop stop-color="#FFF000"/>
<stop offset="1" stop-color="#EF5A28"/>
</linearGradient>
<linearGradient id="paint3_linear_29753_16075" x1="-12.229" y1="34.9444" x2="33.5518" y2="27.161" gradientUnits="userSpaceOnUse">
<stop stop-color="#FFF000"/>
<stop offset="1" stop-color="#EF5A28"/>
</linearGradient>
<linearGradient id="paint4_linear_29753_16075" x1="-15.3112" y1="43.6182" x2="26.5764" y2="36.205" gradientUnits="userSpaceOnUse">
<stop stop-color="#FFF000"/>
<stop offset="1" stop-color="#EF5A28"/>
</linearGradient>
<linearGradient id="paint5_linear_29753_16075" x1="-13.8068" y1="52.1333" x2="28.0837" y2="44.7202" gradientUnits="userSpaceOnUse">
<stop stop-color="#FFF000"/>
<stop offset="1" stop-color="#EF5A28"/>
</linearGradient>
</defs>
</svg>

<svg xmlns="http://www.w3.org/2000/svg" fill="none" viewBox="0 0 39 50"><path fill="url(#a)" d="M38.08 6.097 0 3.99V2.107L38.08 0v6.097Z"/><path fill="url(#b)" d="M38.08 14.876 0 12.77v-1.883l38.08-2.107v6.097Z"/><path fill="url(#c)" d="M28.527 23.65 0 21.55v-1.881l28.527-2.101v6.082Z"/><path fill="url(#d)" d="M28.527 32.432 0 30.332V28.45l28.527-2.1v6.081Z"/><path fill="url(#e)" d="M19.04 41.22 0 39.115v-1.886l19.04-2.104v6.097Z"/><path fill="url(#f)" d="M19.04 50 0 47.894V46.01l19.04-2.107V50Z"/><defs><linearGradient id="a" x1="-16.962" x2="33.452" y1="12.441" y2=".764" gradientUnits="userSpaceOnUse"><stop stop-color="#FFF000"/><stop offset="1" stop-color="#EF5A28"/></linearGradient><linearGradient id="b" x1="-15.032" x2="35.382" y1="20.773" y2="9.097" gradientUnits="userSpaceOnUse"><stop stop-color="#FFF000"/><stop offset="1" stop-color="#EF5A28"/></linearGradient><linearGradient id="c" x1="-13.68" x2="32.1" y1="26.412" y2="18.629" gradientUnits="userSpaceOnUse"><stop stop-color="#FFF000"/><stop offset="1" stop-color="#EF5A28"/></linearGradient><linearGradient id="d" x1="-12.229" x2="33.552" y1="34.944" y2="27.161" gradientUnits="userSpaceOnUse"><stop stop-color="#FFF000"/><stop offset="1" stop-color="#EF5A28"/></linearGradient><linearGradient id="e" x1="-15.311" x2="26.576" y1="43.618" y2="36.205" gradientUnits="userSpaceOnUse"><stop stop-color="#FFF000"/><stop offset="1" stop-color="#EF5A28"/></linearGradient><linearGradient id="f" x1="-13.807" x2="28.084" y1="52.133" y2="44.72" gradientUnits="userSpaceOnUse"><stop stop-color="#FFF000"/><stop offset="1" stop-color="#EF5A28"/></linearGradient></defs></svg>
